// =====================================================================
// SuperCollider Workspace
// =====================================================================

MethodOverride.printAll

Server.default=Server.local

"README.md".openRelative;
