(
~swarmSawJamesPBindef = Pbind(
\instrument, \swarmSawJames,
\id, 67109864,
\type, \set,
\args, #[],
\out, Pdefn(\swarmSawJamesOutBindef1, 0, inf),
\dur, Pdefn(\swarmSawJamesDurBindef1, 0.1, inf),
\freq1, Pdefn(\swarmSawJamesFreq1Bindef1),
\freq2, Pdefn(\swarmSawJamesFreq2Bindef1),
\freq3, Pdefn(\swarmSawJamesFreq3Bindef1),
\freq4, Pdefn(\swarmSawJamesFreq3Bindef1)
).play;
)

~swarmSawJamesPBindef.stop